!!! OTL: Berkowitz361
!!! Chapter: 1
!!! Section: III
!!! Page: 88
!!! Mode: 
!!! Encoder: DJB
**kern
*staff1
*I"Piano
=1-
*clefF4
*k[]
*a:
*M12/8
8AA/L
8C/
8E/J
4A\
[8c\
8c\L]
8B\
8A\J
8B\L
8G#\
8E\J
=2
8A\L
8E\
[8F\J
8F\L]
8D\
[8E\J
8E/L]
16D/L
16C/
16BB/
16AA/JJ
4GG#/
8E\
=3
8AA/L
8C/
8E/J
4A\
[8c\
8c\L]
8d\
8c\J
8B\L
8A\
8G\J
=4
!!linebreak:original
8c\L
16B\L
16A\
16G\
16F\JJ
8E\L
8A\
8F\J
8.E\L
16F\K
8D\J
4.C/
=5
8r
8r
8G\
[4.F#\
8F#\L]
8G\
8A\J
8G\L
8E\
8C\J
=6
8D\
8r
8A\
[4.G#\
8G#\L]
8A\
8B\J
8A\L
8F\
8D\J
=7
8E\L
8F#\
8G#\J
8A\L
8B\
8c\J
8D\L
8E\
8F#\J
8G#\L
8A\
8B\J
=8
!!linebreak:original
8C\L
8D\
8E\J
8F\L
16E\L
16D\
16C\
16BB\JJ
8AA/L
8GG#/
8AA/J
4E\
8E\
=9
8AA/L
8C/
8E/J
4A\
8A\
8AA/L
8D/
8F/J
4A\
8r
=10
8AA/L
8D/
8F/J
[4.G#\
8G#\L]
8A\
8B\J
4.A\
==
*-
